styles/5/Numix/64/places/grey-user-desktop.svg

<?xml version="1.0" encoding="UTF-8" standalone="no"?>
<!-- Created with Inkscape (http://www.inkscape.org/) -->

<svg
   xmlns:dc="http://purl.org/dc/elements/1.1/"
   xmlns:cc="http://creativecommons.org/ns#"
   xmlns:rdf="http://www.w3.org/1999/02/22-rdf-syntax-ns#"
   xmlns:svg="http://www.w3.org/2000/svg"
   xmlns="http://www.w3.org/2000/svg"
   xmlns:xlink="http://www.w3.org/1999/xlink"
   xmlns:sodipodi="http://sodipodi.sourceforge.net/DTD/sodipodi-0.dtd"
   xmlns:inkscape="http://www.inkscape.org/namespaces/inkscape"
   width="64"
   height="64"
   id="svg2"
   version="1.1"
   inkscape:version="0.91 r"
   sodipodi:docname="grey-user-desktop.svg">
  <defs
     id="defs4">
    <linearGradient
       id="linearGradient3886-9">
      <stop
         style="stop-color:#000000;stop-opacity:1;"
         offset="0"
         id="stop3888-3" />
      <stop
         style="stop-color:#000000;stop-opacity:0.19607843;"
         offset="1"
         id="stop3890-7" />
    </linearGradient>
    <radialGradient
       r="24"
       fy="40.5"
       fx="24"
       cy="40.5"
       cx="24"
       gradientTransform="matrix(1.6666667,0,0,0.2777777,-8,1030.4456)"
       gradientUnits="userSpaceOnUse"
       id="radialGradient3098"
       xlink:href="#linearGradient3886-9"
       inkscape:collect="always" />
  </defs>
  <sodipodi:namedview
     id="base"
     pagecolor="#ffffff"
     bordercolor="#666666"
     borderopacity="1.0"
     inkscape:pageopacity="0.0"
     inkscape:pageshadow="2"
     inkscape:zoom="8.8138915"
     inkscape:cx="38.066446"
     inkscape:cy="37.238139"
     inkscape:document-units="px"
     inkscape:current-layer="layer1"
     showgrid="true"
     inkscape:window-width="1280"
     inkscape:window-height="998"
     inkscape:window-x="0"
     inkscape:window-y="0"
     inkscape:window-maximized="1">
    <inkscape:grid
       type="xygrid"
       id="grid2990"
       empspacing="5"
       visible="true"
       enabled="true"
       snapvisiblegridlinesonly="true" />
  </sodipodi:namedview>
  <metadata
     id="metadata7">
    <rdf:RDF>
      <cc:Work
         rdf:about="">
        <dc:format>image/svg+xml</dc:format>
        <dc:type
           rdf:resource="http://purl.org/dc/dcmitype/StillImage" />
        <dc:title />
      </cc:Work>
    </rdf:RDF>
  </metadata>
  <g
     inkscape:label="Body"
     inkscape:groupmode="layer"
     id="layer1"
     transform="translate(0,-988.3622)">
    <path
       inkscape:connector-curvature="0"
       style="opacity:0.1;fill:url(#radialGradient3098);fill-opacity:1;stroke:none"
       d="m 32,1035.0288 c -13.102065,0 -24.7039604,1.0442 -32,2.6668 l 0,8 c 7.2960396,1.6224 18.897935,2.6666 32,2.6666 13.102066,0 24.70396,-1.0442 32,-2.6666 l 0,-8 c -7.29604,-1.6226 -18.897934,-2.6668 -32,-2.6668 z"
       id="path3868" />
    <rect
       style="fill:#757575;fill-opacity:1;stroke:none"
       id="rect2987"
       width="60"
       height="41.999908"
       x="2"
       y="1002.3622"
       rx="6.521739"
       ry="6.5624819" />
    <path
       style="opacity:0.2;fill:#ffffff;fill-opacity:1;stroke:none"
       d="M 8.5217392,1001.6956 C 4.9086956,1001.6956 2,1004.6688 2,1008.3622 l 0,2.6666 c 0,-3.6932 2.9086956,-6.6666 6.5217392,-6.6666 l 46.9565208,0 c 3.613044,0 6.52174,2.9734 6.52174,6.6666 l 0,-2.6666 c 0,-3.6934 -2.908696,-6.6666 -6.52174,-6.6666 l -46.9565208,0 z"
       id="rect3797"
       inkscape:connector-curvature="0" />
    <path
       style="fill:#bdbdbd;fill-opacity:1;stroke:none"
       d="m 8.5217392,1012.3622 10.4347828,0 c 14.347826,-1.3334 11.73913,-16 20.869564,-16 l 15.652174,0 c 3.613044,0 6.52174,2.9734 6.52174,6.6666 l 0,34.6668 c 0,3.6932 -2.908696,6.6666 -6.52174,6.6666 l -46.9565208,0 C 4.9086956,1044.3622 2,1041.3888 2,1037.6956 l 0,-18.6668 c 0,-4 2.6086956,-6.6666 6.5217392,-6.6666 z"
       id="rect3776"
       inkscape:connector-curvature="0"
       sodipodi:nodetypes="cccsssssscc" />
    <path
       style="opacity:0.15;fill:#000000;fill-opacity:1;stroke:none"
       d="m 2,1035.0288 0,2.6668 c 0,3.6932 2.9086956,6.6666 6.5217392,6.6666 l 46.9565208,0 c 3.613044,0 6.52174,-2.9734 6.52174,-6.6666 l 0,-2.6668 c 0,3.6934 -2.908696,7.3334 -6.52174,7.3334 l -46.9565208,0 C 4.9086956,1042.3622 2,1038.7222 2,1035.0288 z"
       id="path3786"
       inkscape:connector-curvature="0"
       sodipodi:nodetypes="csssscssc" />
    <path
       style="fill:#000000;fill-opacity:0.09804131"
       d="M 10 31 C 8.7535 31 8 31.7535 8 33 L 8 43 C 8 44.2465 8.7535 45 10 45 L 14 45 L 14 47 L 12 49 L 22 49 L 20 47 L 20 45 L 24 45 C 25.2465 45 26 44.2465 26 43 L 26 33 C 26 31.7535 25.2465 31 24 31 L 10 31 z M 10 33 L 24 33 L 24 43 L 20 43 L 14 43 L 10 43 L 10 33 z M 12 35 L 12 41 L 16 41 L 16 37 L 14 35 L 12 35 z M 13 36 L 14 36 L 15 37 L 15 40 L 13 40 L 13 36 z "
       transform="translate(0,988.3622)"
       id="path4149" />
    <path
       style="fill:#fff8e1;fill-opacity:1"
       d="m 12,34 0,6 4,0 0,-4 -2,-2 z m 1,1 1,0 1,1 0,3 -2,0 z"
       transform="translate(0,988.3622)"
       id="path8"
       inkscape:connector-curvature="0"
       sodipodi:nodetypes="cccccccccccc" />
    <path
       style="fill:#fff8e1;fill-opacity:1;stroke:none"
       d="m 14,1034.3622 -2,2 10,0 -2,-2 0,-4 -6,0 z"
       id="path3838"
       inkscape:connector-curvature="0"
       sodipodi:nodetypes="ccccccc" />
    <path
       sodipodi:nodetypes="sssssssssccccc"
       inkscape:connector-curvature="0"
       style="fill:#fff8e1;fill-opacity:1;stroke:none"
       d="m 10,1018.3622 c -1.2465,0 -2,0.7535 -2,2 l 0,10 c 0,1.2465 0.7535,2 2,2 l 14,0 c 1.2465,0 1.999999,-0.7535 1.999999,-2 l 0,-10 c 0,-1.2465 -0.753499,-2 -1.999999,-2 z m 0,2 14,0 0,10 -14,0 z"
       id="rect3831" />
  </g>
</svg>

<!-- Created with Inkscape (http://www.inkscape.org/) -->
<svg xmlns="http://www.w3.org/2000/svg" viewBox="0 0 64 64">
 <defs>
  <radialGradient r="24" cy="40.5" cx="24" gradientTransform="matrix(1.6666667,0,0,0.2777777,-8,1030.4456)" gradientUnits="userSpaceOnUse" id="radialGradient3098">
   <stop style="stop-color:#000;stop-opacity:1"/>
   <stop offset="1" style="stop-color:#000;stop-opacity:0.196"/>
  </radialGradient>
 </defs>
 <g transform="translate(0,-988.3622)">
  <path d="m 32 1035.03 c -13.1 0 -24.704 1.044 -32 2.667 l 0 8 c 7.296 1.622 18.898 2.667 32 2.667 13.1 0 24.704 -1.044 32 -2.667 l 0 -8 c -7.296 -1.623 -18.898 -2.667 -32 -2.667 z" style="fill:url(#radialGradient3098);opacity:0.1;fill-opacity:1;stroke:none"/>
  <rect width="60" height="42" x="2" y="1002.36" rx="6.522" ry="6.562" style="fill:#757575;fill-opacity:1;stroke:none"/>
  <path d="m 8.522 1001.7 c -3.613 0 -6.522 2.973 -6.522 6.667 l 0 2.667 c 0 -3.693 2.909 -6.667 6.522 -6.667 l 46.957 0 c 3.613 0 6.522 2.973 6.522 6.667 l 0 -2.667 c 0 -3.693 -2.909 -6.667 -6.522 -6.667 l -46.957 0 z" style="fill:#fff;opacity:0.2;fill-opacity:1;stroke:none"/>
  <path d="m 8.522 1012.36 10.435 0 c 14.348 -1.333 11.739 -16 20.87 -16 l 15.652 0 c 3.613 0 6.522 2.973 6.522 6.667 l 0 34.667 c 0 3.693 -2.909 6.667 -6.522 6.667 l -46.957 0 c -3.613 0 -6.522 -2.973 -6.522 -6.667 l 0 -18.667 c 0 -4 2.609 -6.667 6.522 -6.667 z" style="fill:#bdbdbd;fill-opacity:1;stroke:none"/>
  <path d="m 2 1035.03 0 2.667 c 0 3.693 2.909 6.667 6.522 6.667 l 46.957 0 c 3.613 0 6.522 -2.973 6.522 -6.667 l 0 -2.667 c 0 3.693 -2.909 7.333 -6.522 7.333 l -46.957 0 c -3.613 0 -6.522 -3.64 -6.522 -7.333 z" style="fill:#000;opacity:0.15;fill-opacity:1;stroke:none"/>
  <path d="m 10 31 c -1.246 0 -2 0.753 -2 2 l 0 10 c 0 1.246 0.754 2 2 2 l 4 0 l 0 2 l -2 2 l 10 0 l -2 -2 l 0 -2 l 4 0 c 1.247 0 2 -0.754 2 -2 l 0 -10 c 0 -1.247 -0.753 -2 -2 -2 l -14 0 z m 0 2 l 14 0 l 0 10 l -4 0 l -6 0 l -4 0 l 0 -10 z m 2 2 l 0 6 l 4 0 l 0 -4 l -2 -2 l -2 0 z m 1 1 l 1 0 l 1 1 l 0 3 l -2 0 l 0 -4 z" transform="translate(0,988.3622)" style="fill:#000;fill-opacity:0.098"/>
  <path d="m 12 34 0 6 4 0 0 -4 -2 -2 z m 1 1 1 0 1 1 0 3 -2 0 z" transform="translate(0,988.3622)" style="fill:#fff8e1;fill-opacity:1"/>
  <path d="m 14 1034.36 -2 2 10 0 -2 -2 0 -4 -6 0 z" style="fill:#fff8e1;fill-opacity:1;stroke:none"/>
  <path d="m 10 1018.36 c -1.246 0 -2 0.754 -2 2 l 0 10 c 0 1.246 0.754 2 2 2 l 14 0 c 1.247 0 2 -0.754 2 -2 l 0 -10 c 0 -1.246 -0.753 -2 -2 -2 z m 0 2 14 0 0 10 -14 0 z" style="fill:#fff8e1;fill-opacity:1;stroke:none"/>
 </g>
</svg>
